; generated by PrusaSlicer 2.9.0 on 2026-01-30 at 16:56:46 UTC

; 

; external perimeters extrusion width = 0.68mm
; perimeters extrusion width = 0.68mm
; infill extrusion width = 0.68mm
; solid infill extrusion width = 0.68mm
; top infill extrusion width = 0.60mm
; first layer extrusion width = 0.63mm

M190 S50 ; set bed temperature and wait for it to be reached
M104 S200 ; set temperature
;TYPE:Custom
G28                ; Home all axes
G29                ; Perform auto bed leveling
G1 Z5 F5000 ; lift nozzle

M109 S200 ; set temperature and wait for it to be reached
G21 ; set units to millimeters
G90 ; use absolute coordinates
M82 ; use absolute distances for extrusion
G92 E0
; Filament gcode
M107
;LAYER_CHANGE
;Z:0.35
;HEIGHT:0.35
G1 E-2 F2400
G1 Z.35 F7800
G92 E0
G1 X88.163 Y47.655
G1 E2 F2400
;TYPE:External perimeter
;WIDTH:0.895241
G1 F1800
G1 X88.212 Y47.373 E2.03416
G1 E.03416 F2400
G92 E0
G1 X88.212 Y47.373 F7800
G1 X85.48 Y47.134
G1 E2 F2400
;WIDTH:0.685712
G1 F1800
G1 X85.522 Y46.85 E2.02551
G1 X85.275 Y47.207 E2.06408
;WIDTH:0.640261
G1 X84.919 Y47.58 E2.10648
;WIDTH:0.63
G1 X84.414 Y47.912 E2.15528
G1 X83.912 Y48.086 E2.19818
G1 X83.398 Y48.169 E2.24022
G1 X82.861 Y48.199 E2.28365
G1 X82.145 Y48.192 E2.34147
G1 X81.613 Y48.231 E2.38454
G1 X81.186 Y48.144 E2.41973
G1 X80.92 Y47.846 E2.45198
G1 X80.802 Y47.311 E2.49622
;WIDTH:0.6776
G1 X80.781 Y47.124 E2.51272
;WIDTH:0.7252
G1 X80.761 Y46.938 E2.53042
;WIDTH:0.772801
G1 X80.741 Y46.751 E2.54951
G1 X80.757 Y46.233 E2.60212
;WIDTH:0.77682
G1 X80.742 Y45.856 E2.64065
;WIDTH:0.806883
G1 X80.728 Y45.479 E2.68082
G1 X80.747 Y45.352 E2.69449
;WIDTH:0.769046
G1 X80.766 Y45.225 E2.70746
;WIDTH:0.731209
G1 X80.785 Y45.098 E2.71972
;WIDTH:0.693372
G1 X80.804 Y44.971 E2.73127
;WIDTH:0.655536
G1 X80.818 Y44.459 E2.77453
;WIDTH:0.63
G1 X80.819 Y43.054 E2.88797
G1 X80.779 Y42.461 E2.93596
G1 X80.844 Y42.168 E2.96019
G1 X81.051 Y41.913 E2.98671
G1 X81.407 Y41.754 E3.01819
G1 X81.741 Y41.719 E3.04531
G1 X83.33 Y41.755 E3.17364
G1 X83.826 Y41.821 E3.21404
G1 X84.32 Y41.955 E3.25537
G1 X84.717 Y42.156 E3.2913
G1 X85.083 Y42.461 E3.32977
G1 X85.44 Y42.933 E3.37755
G1 X85.604 Y43.224 E3.40452
G1 X85.809 Y43.819 E3.45533
G1 X85.913 Y44.447 E3.50673
G1 X85.92 Y45.358 E3.58029
G1 X85.831 Y45.97 E3.63022
;WIDTH:0.663768
G1 X85.761 Y46.256 E3.65544
;WIDTH:0.697537
G1 X85.692 Y46.541 E3.682
;WIDTH:0.705719
G1 X85.671 Y46.601 E3.68783
G1 X85.876 Y46.38 E3.71549
;WIDTH:0.664129
G1 X86.283 Y46.146 E3.75573
;WIDTH:0.63
G1 X86.784 Y46.055 E3.79684
G1 X87.295 Y46.163 E3.83901
G1 X87.682 Y46.425 E3.87675
G1 X87.97 Y46.845 E3.91787
;WIDTH:0.674206
G1 X88.01 Y46.933 E3.9263
;WIDTH:0.718413
G1 X88.051 Y47.021 E3.93539
;WIDTH:0.76262
G1 X88.091 Y47.109 E3.94506
;WIDTH:0.806827
G1 X88.131 Y47.197 E3.95535
;WIDTH:0.851034
G1 X88.171 Y47.285 E3.96626
;WIDTH:0.895241
G1 X88.212 Y47.373 E3.97785
G1 X88.258 Y47.3 E3.98815
;WIDTH:0.853472
G1 X88.304 Y47.227 E3.99792
;WIDTH:0.811703
G1 X88.35 Y47.155 E4.00708
;WIDTH:0.769935
G1 X88.42 Y47.078 E4.0176
;WIDTH:0.72329
G1 X88.491 Y47.001 E4.02748
;WIDTH:0.676645
G1 X88.562 Y46.925 E4.03658
;WIDTH:0.63
G1 X88.928 Y46.282 E4.09632
G1 X89.249 Y45.826 E4.14135
G1 X89.252 Y45.737 E4.14854
G1 X88.565 Y44.557 E4.25879
G1 X88.372 Y44.069 E4.30116
G1 X88.38 Y43.704 E4.33064
G1 X88.512 Y43.449 E4.35382
G1 X88.708 Y43.294 E4.374
G1 X89.136 Y43.165 E4.41009
G1 X89.472 Y43.251 E4.43809
G1 X89.79 Y43.525 E4.47198
G1 X90.018 Y43.861 E4.50477
G1 X90.189 Y44.193 E4.53492
G1 X90.409 Y43.735 E4.57595
G1 X90.779 Y43.335 E4.61995
G1 X91.083 Y43.183 E4.64739
G1 X91.422 Y43.197 E4.67479
G1 X91.738 Y43.409 E4.70552
G1 X91.885 Y43.671 E4.72978
;WIDTH:0.600831
G1 X91.925 Y43.993 E4.7546
;WIDTH:0.622633
G1 X91.852 Y44.306 E4.78021
;WIDTH:0.63
G1 X91.294 Y45.258 E4.86931
G1 X91.148 Y45.57 E4.89712
G1 X91.108 Y45.701 E4.90818
G1 X91.198 Y45.982 E4.932
G1 X91.819 Y47.016 E5.02939
G1 X91.976 Y47.387 E5.06192
G1 X92.008 Y47.667 E5.08468
G1 X91.958 Y47.937 E5.10685
G1 X91.814 Y48.17 E5.12897
G1 X91.587 Y48.336 E5.15168
G1 X91.12 Y48.41 E5.18986
G1 X90.833 Y48.31 E5.2144
G1 X90.653 Y48.159 E5.23337
G1 X90.385 Y47.751 E5.27278
G1 X90.107 Y47.249 E5.31911
G1 X89.846 Y47.76 E5.36544
G1 X89.49 Y48.212 E5.4119
G1 X89.193 Y48.38 E5.43945
G1 X88.832 Y48.366 E5.46862
G1 X88.504 Y48.173 E5.49935
;WIDTH:0.676227
G1 X88.423 Y48.079 E5.5102
;WIDTH:0.722454
G1 X88.341 Y47.985 E5.52195
;WIDTH:0.768681
G1 X88.26 Y47.89 E5.53455
;WIDTH:0.80373
G1 X88.228 Y47.812 E5.54349
;WIDTH:0.838779
G1 X88.195 Y47.733 E5.553
;WIDTH:0.873829
G1 X88.163 Y47.655 E5.5628
G1 X88.115 Y47.735 E5.57364
;WIDTH:0.831211
G1 X88.067 Y47.816 E5.584
;WIDTH:0.788594
G1 X88.019 Y47.896 E5.59369
;WIDTH:0.745977
G1 X87.91 Y48.03 E5.61055
;WIDTH:0.707318
G1 X87.801 Y48.163 E5.62637
;WIDTH:0.668659
G1 X87.691 Y48.297 E5.64134
;WIDTH:0.63
G1 X87.281 Y48.574 E5.68129
G1 X86.774 Y48.679 E5.7231
G1 X86.285 Y48.582 E5.76335
G1 X85.844 Y48.3 E5.80562
G1 X85.559 Y47.869 E5.84734
;WIDTH:0.640261
G1 X85.455 Y47.302 E5.89475
;WIDTH:0.685712
G1 X85.467 Y47.223 E5.90185
G1 X85.028 Y46.814 F7800
G1 X85.671 Y46.601
;WIDTH:0.705719
G1 F1800
G1 X85.54 Y46.821 E5.92535
G1 E3.92535 F2400
G92 E0
G1 X85.54 Y46.821 F7800
G1 X76.614 Y43.526
G1 E2 F2400
;WIDTH:0.622128
G1 F1800
G1 X76.598 Y43.53 E2.00131
;WIDTH:0.63
G1 X76.334 Y43.435 E2.02396
G1 X76.077 Y43.19 E2.05263
G1 X75.976 Y43.02 E2.0686
;WIDTH:0.622545
G1 X75.919 Y42.771 E2.08895
;WIDTH:0.5847
G1 X75.932 Y42.513 E2.10811
;WIDTH:0.63
G1 X76.053 Y42.215 E2.13408
G1 X76.437 Y41.882 E2.17512
G1 X76.974 Y41.655 E2.22219
G1 X77.621 Y41.559 E2.275
G1 X78.257 Y41.59 E2.32641
G1 X78.802 Y41.73 E2.37184
G1 X79.251 Y41.996 E2.41398
G1 X79.588 Y42.41 E2.45708
G1 X79.701 Y42.653 E2.47872
G1 X79.767 Y42.925 E2.50132
G1 X79.749 Y43.654 E2.5602
G1 X79.63 Y44.079 E2.59584
G1 X79.482 Y44.299 E2.61725
G1 X79.243 Y44.495 E2.64221
G1 X79.616 Y44.814 E2.68184
;WIDTH:0.678881
G1 X79.736 Y45.041 E2.7044
;WIDTH:0.727762
G1 X79.855 Y45.269 E2.72882
;WIDTH:0.776644
G1 X79.975 Y45.496 E2.75503
G1 X80.083 Y46.174 E2.82511
;WIDTH:0.75257
G1 X80.03 Y46.708 E2.87801
G1 X79.909 Y46.941 E2.90389
;WIDTH:0.711713
G1 X79.788 Y47.173 E2.92813
;WIDTH:0.670856
G1 X79.667 Y47.405 E2.95081
;WIDTH:0.63
G1 X79.335 Y47.802 E2.9926
G1 X78.978 Y48.07 E3.02864
G1 X78.66 Y48.221 E3.05706
G1 X78.213 Y48.335 E3.09431
G1 X77.47 Y48.364 E3.15435
G1 X76.779 Y48.232 E3.21115
G1 X76.285 Y47.971 E3.25626
G1 X76.032 Y47.684 E3.28715
G1 X75.913 Y47.382 E3.31336
G1 X75.892 Y47.093 E3.33676
G1 X75.983 Y46.764 E3.36432
G1 X76.142 Y46.568 E3.3847
G1 X76.42 Y46.417 E3.41024
G1 X76.773 Y46.376 E3.43893
G1 X77.228 Y46.498 E3.47697
G1 X77.739 Y46.839 E3.52657
G1 X77.95 Y46.819 E3.54368
G1 X78.163 Y46.685 E3.564
G1 X78.293 Y46.439 E3.58647
G1 X78.286 Y46.166 E3.60852
G1 X78.169 Y45.907 E3.63147
G1 X77.885 Y45.635 E3.66322
G1 X77.369 Y45.455 E3.70735
G1 X76.873 Y45.324 E3.74877
G1 X76.64 Y45.074 E3.77636
G1 X76.576 Y44.804 E3.79876
G1 X76.643 Y44.361 E3.83494
G1 X76.838 Y44.078 E3.86269
;WIDTH:0.622128
G1 X77.197 Y43.89 E3.89495
;WIDTH:0.628821
G1 X77.471 Y43.809 E3.91797
;WIDTH:0.670744
G1 X77.744 Y43.727 E3.94268
G1 X77.92 Y43.583 E3.96239
;WIDTH:0.668916
G1 X77.987 Y43.352 E3.98317
G1 X77.935 Y43.227 E3.99487
G1 X77.848 Y43.146 E4.00514
G1 X77.613 Y43.135 E4.02547
G1 X77.311 Y43.278 E4.05434
;WIDTH:0.627907
G1 X77.009 Y43.422 E4.08125
;WIDTH:0.622128
G1 X76.701 Y43.503 E4.1066
G1 X76.158 Y43.246 F7800
G1 E2.1066 F2400
G92 E0
G1 X73.573 Y43.306 F7800
G1 E2 F2400
;WIDTH:0.63
G1 F1800
G1 X73.541 Y43.476 E2.01397
G1 X73.558 Y47.348 E2.32661
G1 X73.419 Y47.851 E2.36875
G1 X73.197 Y48.088 E2.39497
G1 X72.968 Y48.192 E2.41528
G1 X72.641 Y48.219 E2.44177
G1 X72.292 Y48.117 E2.47113
G1 X72.055 Y47.906 E2.49675
G1 X71.947 Y47.544 E2.52725
G1 X71.984 Y46.925 E2.57732
G1 X71.968 Y44.152 E2.80123
G1 X72 Y43.615 E2.84467
G1 X71.957 Y43.416 E2.86111
G1 X71.804 Y43.306 E2.87633
G1 X71.502 Y43.289 E2.90075
G1 X70.854 Y43.357 E2.95336
G1 X70.572 Y43.313 E2.97641
G1 X70.299 Y43.131 E3.0029
G1 X70.115 Y42.657 E3.04395
;WIDTH:0.609527
G1 X70.102 Y42.397 E3.06419
;WIDTH:0.62575
G1 X70.138 Y42.219 E3.07874
;WIDTH:0.63
G1 X70.314 Y41.926 E3.10634
G1 X70.551 Y41.767 E3.12938
G1 X70.902 Y41.699 E3.15825
G1 X71.488 Y41.741 E3.20569
G1 X74.779 Y41.73 E3.47142
G1 X75.176 Y41.853 E3.50498
G1 X75.393 Y42.123 E3.53295
G1 X75.445 Y42.464 E3.5608
;WIDTH:0.60533
G1 X75.396 Y42.839 E3.58998
;WIDTH:0.63
G1 X75.259 Y43.067 E3.61146
G1 X74.993 Y43.232 E3.63673
G1 X74.473 Y43.32 E3.67931
G1 X73.663 Y43.307 E3.74472
G1 X73.544 Y43.895 F7800
G1 E1.74472 F2400
G92 E0
G1 X69.618 Y46.723 F7800
G1 E2 F2400
G1 F1800
G1 X69.685 Y46.995 E2.02262
G1 X69.586 Y47.327 E2.05059
G1 X69.373 Y47.662 E2.08264
G1 X69.137 Y47.896 E2.10947
G1 X68.674 Y48.174 E2.15308
G1 X68.073 Y48.337 E2.20336
G1 X67.228 Y48.35 E2.2716
G1 X66.668 Y48.231 E2.31783
G1 X66 Y47.9 E2.37803
G1 X65.65 Y47.612 E2.41463
G1 X65.29 Y47.172 E2.46053
G1 X64.956 Y46.465 E2.52367
G1 X64.895 Y46.088 E2.55451
;WIDTH:0.588873
G1 X64.834 Y45.711 E2.58306
;WIDTH:0.547746
G1 X64.801 Y45.004 E2.63174
;WIDTH:0.540104
G1 X64.829 Y44.292 E2.67995
;WIDTH:0.585052
G1 X64.866 Y43.967 E2.70422
;WIDTH:0.63
G1 X64.904 Y43.643 E2.73056
G1 X65.097 Y43.106 E2.77663
G1 X65.437 Y42.556 E2.82884
G1 X65.887 Y42.111 E2.87994
G1 X66.427 Y41.791 E2.93062
G1 X67 Y41.614 E2.97904
G1 X67.58 Y41.559 E3.02608
G1 X68.318 Y41.638 E3.08601
G1 X68.731 Y41.783 E3.12135
G1 X69.224 Y42.104 E3.16885
G1 X69.52 Y42.456 E3.20599
;WIDTH:0.609527
G1 X69.625 Y42.79 E3.23322
;WIDTH:0.608543
G1 X69.634 Y43.002 E3.24969
;WIDTH:0.63
G1 X69.518 Y43.347 E3.27908
G1 X69.177 Y43.65 E3.31591
G1 X68.879 Y43.707 E3.34041
G1 X68.444 Y43.607 E3.37645
G1 X67.78 Y43.232 E3.43802
G1 X67.45 Y43.209 E3.46473
G1 X67.106 Y43.274 E3.493
G1 X66.773 Y43.504 E3.52568
G1 X66.532 Y43.902 E3.56325
G1 X66.401 Y44.497 E3.61244
G1 X66.397 Y45.386 E3.68422
G1 X66.526 Y46.015 E3.73606
G1 X66.705 Y46.335 E3.76567
G1 X66.975 Y46.587 E3.79549
G1 X67.355 Y46.714 E3.82784
G1 X67.704 Y46.727 E3.85604
G1 X68.002 Y46.655 E3.88079
G1 X68.338 Y46.37 E3.91636
G1 X68.561 Y46.257 E3.93655
G1 X69.066 Y46.264 E3.97733
G1 X69.396 Y46.435 E4.00734
G1 X69.569 Y46.649 E4.02956
G1 X69.592 Y47.248 F7800
G1 E2.02956 F2400
G92 E0
G1 X100.798 Y48.063 F7800
G1 E2 F2400
;WIDTH:0.765969
G1 F1800
G1 X100.547 Y48.317 E2.0359
G1 E.0359 F2400
G92 E0
G1 X100.547 Y48.317 F7800
G1 X70.781 Y47.373
G1 E2 F2400
;TYPE:Perimeter
;WIDTH:0.713151
G1 F1800
G1 X70.813 Y47.576 E2.01908
;WIDTH:0.680013
G1 X70.845 Y47.78 E2.03726
;WIDTH:0.646876
G1 X70.998 Y48.252 E2.07854
;WIDTH:0.63
G1 X71.236 Y48.669 E2.11731
G1 X71.639 Y49.014 E2.16014
G1 X72.152 Y49.247 E2.20563
G1 X72.617 Y49.333 E2.24381
G1 X73.116 Y49.292 E2.28424
G1 X73.729 Y49.063 E2.33708
G1 X74.103 Y48.764 E2.37574
G1 X74.403 Y48.363 E2.41618
;WIDTH:0.639611
G1 X74.562 Y47.929 E2.45415
;WIDTH:0.680957
G1 X74.619 Y47.76 E2.46987
;WIDTH:0.722304
G1 X74.675 Y47.592 E2.48655
;WIDTH:0.763651
G1 X74.732 Y47.424 E2.50432
G1 X74.78 Y47.582 E2.52086
;WIDTH:0.725296
G1 X74.828 Y47.741 E2.53657
;WIDTH:0.686942
G1 X74.975 Y48.035 E2.56583
;WIDTH:0.658471
G1 X75.123 Y48.328 E2.59369
;WIDTH:0.63
G1 X75.536 Y48.797 E2.64415
G1 X76.155 Y49.17 E2.7025
G1 X76.56 Y49.32 E2.73737
G1 X77.186 Y49.446 E2.78893
G1 X77.513 Y49.473 E2.81542
G1 X78.255 Y49.444 E2.87538
G1 X78.567 Y49.396 E2.90087
G1 X79.2 Y49.198 E2.95442
G1 X79.702 Y48.92 E3.00075
G1 X80.104 Y48.603 E3.04209
G1 X80.273 Y48.804 E3.06329
G1 X80.602 Y49.087 E3.09833
G1 X81.082 Y49.272 E3.13987
G1 X81.502 Y49.339 E3.17421
G1 X82.134 Y49.302 E3.22533
G1 X82.918 Y49.307 E3.28863
G1 X83.574 Y49.265 E3.34171
G1 X84.311 Y49.127 E3.40225
G1 X84.904 Y48.91 E3.45324
G1 X85.266 Y49.256 E3.49367
G1 X85.702 Y49.526 E3.53508
G1 X86.218 Y49.716 E3.57948
G1 X86.579 Y49.773 E3.60899
G1 X86.947 Y49.78 E3.63871
G1 X87.422 Y49.69 E3.67775
G1 X87.806 Y49.552 E3.7107
G1 X88.2 Y49.293 E3.74877
G1 X88.449 Y49.409 E3.77095
G1 X88.965 Y49.499 E3.81324
G1 X89.458 Y49.458 E3.85318
G1 X89.679 Y49.379 E3.87213
G1 X90.102 Y49.149 E3.91101
G1 X90.414 Y49.346 E3.9408
G1 X90.943 Y49.501 E3.98531
G1 X90.872 Y50 E4.02601
G1 X90.899 Y50.417 E4.05975
G1 X91.121 Y51.029 E4.11232
G1 X91.488 Y51.492 E4.16002
G1 X91.655 Y51.63 E4.17751
G1 X90.717 Y51.711 E4.25353
G1 X89.833 Y51.726 E4.32492
G1 X89.199 Y51.701 E4.37615
G1 X69.089 Y50.468 E6.00295
;WIDTH:0.678725
G1 X68.813 Y50.427 E6.02746
;WIDTH:0.72745
G1 X68.537 Y50.386 E6.05395
;WIDTH:0.776175
G1 X68.261 Y50.344 E6.08243
;WIDTH:0.8249
G1 X67.985 Y50.303 E6.11287
G1 X66.802 Y50.238 E6.24213
;WIDTH:0.850146
G1 X66.293 Y50.187 E6.29982
;WIDTH:0.881826
G1 X65.71 Y50.09 E6.3692
G1 X65.643 Y49.804 E6.40368
G1 X65.643 Y49.105 E6.48573
G1 X66.04 Y49.308 E6.53807
G1 X66.401 Y49.422 E6.58251
;WIDTH:0.850146
G1 X66.817 Y49.483 E6.62993
;WIDTH:0.824919
G1 X67.233 Y49.544 E6.6758
;WIDTH:0.837
G1 X68.168 Y49.551 E6.77946
G1 X68.272 Y49.505 E6.79207
;WIDTH:0.787098
G1 X68.377 Y49.46 E6.80391
;WIDTH:0.737197
G1 X68.699 Y49.333 E6.83726
;WIDTH:0.701464
G1 X69.021 Y49.206 E6.86881
;WIDTH:0.665732
G1 X69.343 Y49.079 E6.89856
;WIDTH:0.63
G1 X69.73 Y48.834 E6.93554
G1 X70.173 Y48.432 E6.98384
G1 X70.533 Y47.905 E7.03537
;WIDTH:0.671575
G1 X70.657 Y47.639 E7.06084
;WIDTH:0.713151
G1 X70.743 Y47.455 E7.0797
G1 E5.0797 F2400
G92 E0
G1 X70.743 Y47.455 F7800
G1 X68.901 Y44.977
G1 E2 F2400
;WIDTH:0.941203
G1 F1800
G1 X68.832 Y45.005 E2.00938
;WIDTH:0.895164
G1 X68.763 Y45.032 E2.01822
;WIDTH:0.849126
G1 X68.695 Y45.059 E2.02646
;WIDTH:0.803088
G1 X68.626 Y45.087 E2.03435
;WIDTH:0.75705
G1 X68.557 Y45.114 E2.0417
;WIDTH:0.711011
G1 X68.488 Y45.142 E2.04859
;WIDTH:0.664973
G1 X68.419 Y45.169 E2.05495
;WIDTH:0.618935
G1 X68.35 Y45.196 E2.06081
;WIDTH:0.618166
G1 X68.234 Y45.211 E2.07005
;WIDTH:0.663435
G1 X68.118 Y45.226 E2.08006
;WIDTH:0.708704
G1 X68.001 Y45.241 E2.09094
G1 X67.593 Y45.498 E2.1354
G1 X67.557 Y45.325 E2.15169
G1 X67.549 Y44.799 E2.20019
G1 X67.589 Y44.444 E2.23313
G1 X67.995 Y44.666 E2.27579
G1 X68.113 Y44.68 E2.28675
;WIDTH:0.663435
G1 X68.232 Y44.694 E2.29701
;WIDTH:0.618166
G1 X68.35 Y44.707 E2.30639
;WIDTH:0.618935
G1 X68.419 Y44.741 E2.31248
;WIDTH:0.664973
G1 X68.488 Y44.775 E2.31908
;WIDTH:0.711011
G1 X68.557 Y44.809 E2.3262
;WIDTH:0.75705
G1 X68.626 Y44.842 E2.33379
;WIDTH:0.803088
G1 X68.694 Y44.876 E2.34184
;WIDTH:0.849126
G1 X68.763 Y44.91 E2.3505
;WIDTH:0.895164
G1 X68.82 Y44.938 E2.35808
G1 E.35808 F2400
G92 E0
G1 X68.82 Y44.938 F7800
G1 X70.862 Y44.929
G1 E2 F2400
;WIDTH:0.63
G1 F1800
G1 X70.867 Y45.615 E2.05539
;WIDTH:0.636337
G1 X70.868 Y46.344 E2.11492
;WIDTH:0.674193
G1 X70.851 Y46.619 E2.13894
;WIDTH:0.712049
G1 X70.833 Y46.894 E2.16448
G1 X70.755 Y46.634 E2.18964
;WIDTH:0.674193
G1 X70.676 Y46.373 E2.21341
;WIDTH:0.636337
G1 X70.349 Y45.825 E2.26552
;WIDTH:0.63
G1 X69.96 Y45.469 E2.3081
G1 X69.767 Y45.363 E2.32588
;WIDTH:0.679275
G1 X69.682 Y45.307 E2.33483
;WIDTH:0.72855
G1 X69.596 Y45.252 E2.34454
;WIDTH:0.777825
G1 X69.511 Y45.197 E2.35489
;WIDTH:0.827101
G1 X69.426 Y45.142 E2.36597
;WIDTH:0.876376
G1 X69.341 Y45.087 E2.37777
;WIDTH:0.925651
G1 X69.255 Y45.031 E2.39047
;WIDTH:0.974927
G1 X69.17 Y44.976 E2.40373
G1 X69.225 Y44.938 E2.41248
;WIDTH:0.928376
G1 X69.279 Y44.9 E2.42068
;WIDTH:0.881826
G1 X69.334 Y44.861 E2.42859
;WIDTH:0.835276
G1 X69.389 Y44.823 E2.43598
;WIDTH:0.788726
G1 X69.444 Y44.785 E2.44292
;WIDTH:0.742176
G1 X69.498 Y44.747 E2.44933
;WIDTH:0.695626
G1 X69.619 Y44.678 E2.46191
;WIDTH:0.662813
G1 X69.741 Y44.61 E2.47385
;WIDTH:0.63
G1 X70.116 Y44.319 E2.51218
G1 X70.369 Y44.408 E2.53384
G1 X70.86 Y44.457 E2.57368
G1 X70.862 Y44.839 E2.60452
G1 X70.862 Y44.839 F7800
G1 X69.17 Y44.976
;WIDTH:0.974927
G1 F1800
G1 X68.901 Y44.977 E2.63974
G1 E.63974 F2400
G92 E0
G1 X68.901 Y44.977 F7800
G1 X70.802 Y47.312
G1 E2 F2400
;WIDTH:0.723311
G1 F1800
G1 X70.833 Y46.894 E2.03953
G1 E.03953 F2400
G92 E0
G1 X70.833 Y46.894 F7800
G1 X74.732 Y47.424
G1 E2 F2400
;WIDTH:0.771241
G1 F1800
G1 X74.736 Y46.855 E2.05764
G1 E.05764 F2400
G92 E0
G1 X74.736 Y46.855 F7800
G1 X75.418 Y44.822
G1 E2 F2400
;WIDTH:0.769854
G1 F1800
